X:1
T:Contrapunctus IX a 4. alla Duodecima (A = 415 Hz)
T:BWV 1080 The Art of Fugue
T:J. S. Bach
%%score { 1 | 2 } { 3 | 4 }
L:1/8
M:4/4
K:E
V:1 alto1 nm="Harp"
V:2 alto 
V:3 tenor nm="Harp"
V:4 bass 
V:1
 z8 | z8 | z8 | z4 z G g2- | g=g/^e/ d/c/B/^A/ G/=G/^G/A/ B/G/A/B/ | %5
 c/^B/c/d/ e/c/d/e/ ed z/ d/c/d/ | e/g/f/e/ f/e/d/c/ B/e/d/c/ d/c/B/^A/ | %7
 G/c/B/A/ B/A/G/=G/ ^Ge ^B2 | c2 z B BA/c/ fd | ^B2 z B ce d/f/A | GB ^B/d/F E2 z B | %11
 ^A2 z =G ^G4- | G4 ^A/B/c/A/ B2- | B2 A2 G2 F2 | E/G/F/E/ F/E/D/C/ F/A/G/F/ G/F/E/D/ | %15
 GB e2- e2 d2- | d2 c2- c2 ^B2 | c4 g4 | e4 c4 | ^B4 c2 d2 | e4- efed | c4- c/c/B/A/ B/A/G/F/ | %22
 G/b/a/g/ a/g/f/e/ d/e/f z f | fe z/ B/A/B/ GcB^A | BA/G/ A2 Ge c2- | %25
 c/B/A/G/ A/G/F/E/ D/E/F/G/ A2- | A/G/^A/B/ c2- c/B/c/d/ e2- | %27
 e/e/d/c/ d/c/B/^A/ B/c/B/=A/ B/A/G/F/ | G^Bcd G/A/G/F/ G/F/E/D/ | %29
 E/B/A/G/ A/G/F/E/ Dd z/ d/c/^B/ | cGcB AGFE | D/C/D/E/ F/D/G- G/E/A- A/F/B/A/ | %32
 E/c/B/A/ B/G/B- B/c/B/A/ B/A/G/F/ | E4- E/G/F/E/ F/E/D/C/ | D4- D/f/e/d/ e/d/c/B/ | %35
 c4- c/e/d/c/ d/c/B/^A/ | B/d/c/B/ c/B/^A/G/ A z z2 | z D d2- d=d z d | d/e/d/c/ d/c/B/^A/ Ggce- | %39
 e/d/c/B/ c/B/^A/G/ =G2 ^GA | B4- BGcB | ^A4- AFB=A | G4 d4 | %43
 B/g/f/e/ f/e/d/c/ ^B/d/c/B/ c/B/^A/G/ | cG g3 f/e/ d/c/^B/^A/ | %45
 G/F/G/^A/ B/G/A/^B/ c/B/c/d/ e/c/d/e/ | ed z/ d/c/d/ e/g/f/e/ f/e/d/c/ | %47
 B/e/d/c/ d/c/B/A/ G/c/B/A/ B/A/G/F/ | E/A/G/F/ G/F/E/D/ C4- | C/c/B/A/ B/A/G/F/ G z z2 | %50
 z2 A2- A^AB^B | z/ c/B/A/ Bc Af- fe/=d/ | c=de z z4 | z8 | z8 | z4 z/ C/D/^E/ F/E/F/G/ | %56
 A/F/G/^A/ B/A/B/c/ =dcB=A | G/F/G/A/ B/G/^A/^B/ cF- FE- | E/D/ C2 F- F/A/G/F/ G/F/E/D/ | %59
 E/D/E/G/ F/E/D/C/ D2 z ^B | c2- c/B/A/G/ F4- | F4 E2 z A | G2 z ^B c/=B/A/G/ A/G/F/^E/ | %63
 F4- F/A/G/F/ G/F/E/D/ | E>F D>C !fermata!C4 |] %65
V:2
 z C c3 ^B/^A/ G/F/E/D/ | C/^B,/C/D/ E/C/D/E/ F/^E/F/G/ A/F/G/A/ | AG z/ G/F/G/ A/c/B/A/ B/A/G/F/ | %3
 E/A/G/F/ G/F/E/D/ C/F/E/D/ E/D/C/B,/ | ^A,D=GD B,/C/B,/A,/ G,^G | E/F/E/D/ Cc =G^G/^A/ BA | %6
 G2 z =G ^G2 z D | E2 z E D2 z F- | FE/F/ G2 C2 z F | DE/F/ ED C z z D | E z z ^B, C2 z D | %11
 EC z/ E/D/C/ B,/^A,/B,/C/ D/B,/C/D/ | E z z2 z4 | z8 | z8 | z2 z G A/c/B/A/ B/A/G/F/ | %16
 E/G/F/E/ F/E/D/C/ D/A/G/F/ G/F/E/D/ | C/B/A/G/ F/E/D/F/ ED z ^B | cGcB- BA/G/ FE | %19
 DE/F/ ED CF-FA | GB EG/E/ G/d/c/^B/ c/=B/A/G/ | ABAG F2 z2 | z B, B3 A/G/ F/E/D/C/ | %23
 B,/A,/B,/C/ D/B,/C/D/ E/D/E/F/ G/E/F/G/ | GF z/ F/E/F/ G/B/A/G/ A/G/F/E/ | %25
 D/G/F/E/ F/E/D/C/ B,2 z/ B,/C/D/ | E2- E/D/^E/=G/ ^G2- G/F/G/^A/ | BD^E=G ^GB,CD | EFE^B, B,C z2 | %29
 C4 G4 | E4 C4 | ^B,4 C2 D2 | E4- EFED | C/D/C/^B,/ C/=B,/^A,/G,/ A,4- | %34
 A,/C/B,/^A,/ B,/A,/G,/=G,/ ^G, z z2 | z/ B/^A/G/ A/G/=G/^E/ G z z2 | z D d3 c/B/ ^A/G/=G/^E/ | %37
 D/C/D/^E/ =G/D/E/G/ ^G/=G/^G/^A/ B/G/A/B/ | B^A z/ A/G/A/ B/d/c/B/ c/B/A/G/ | %39
 F/B/^A/G/ A/G/=G/^E/ D=E D2- | DDGF ^E z z2 | z CFE D z z2 | %42
 z/ d/c/B/ c/B/^A/G/ A/B/A/G/ A/G/=G/^E/ | D4 G4- | G[K:alto1]c/d/ ed/c/ d z z2 | %45
[K:alto] z2 z/ B,/C/D/ E z z/ E/F/G/ | A/G/F/A/ G2- GA- AB/A/ | GEFD E z z ^B, | C z z2 z4 | %49
 z C c3 B/A/ G/F/^E/D/ | C/B,/C/D/ ^E/C/D/E/ F/E/F/G/ A/F/G/A/ | AG z/ G/F/G/ A/c/B/A/ B/A/G/F/ | %52
 E/A/=G/F/ G/F/E/=D/ C2 DE | A,^A,B,C =D4- | D/F/E/=D/ E/D/C/B,/ G4- | G/B/A/G/ A/G/F/^E/ F z z2 | %56
 z4 z/ ^A,/B,/C/ =D/B,/C/^D/ | E4- E2 D2 | C>B, A,2 G, z z2 | C4 G4 | E4 C4 | ^B,4 C2 D2 | %62
 E4- EFE=D | C2 z C D^B, C2- | C2 ^B,2 !fermata!G,4 |] %65
V:3
 z8 | z8 | z8 | z8 | z8 | z8 | z8 | z8 | z8 | z8 | z4 z G, G2- | %11
 G=G/^E/ D/C/B,/^A,/ G,/=G,/^G,/A,/ B,/G,/A,/B,/ | C/^B,/C/D/ E/C/D/E/ ED z/ D/C/D/ | %13
 E/G/F/E/ F/E/D/C/ B,/E/D/C/ D/C/^B,/^A,/ | G,A,/G,/ A,3 B,/A,/ B,2- | B, z z2 z4 | z8 | %17
 z C, C3 ^B,/^A,/ G,/F,/E,/D,/ | C,/^B,,/C,/D,/ E,/C,/D,/E,/ F,/^E,/F,/G,/ A,/F,/G,/A,/ | %19
 A,G, z/ G,/F,/G,/ A,/C/B,/A,/ B,/A,/G,/F,/ | E,/A,/G,/F,/ G,/F,/E,/D,/ C,2 z/ C,/D,/E,/ | %21
 F,/G,/F,/E,/ F,/E,/D,/C,/ D,/E,/D,/C,/ D,/B,,/C,/D,/ | E,4 B,4 | G,4 E,4 | D,4 E,2 F,2 | %25
 G,4- G,A,G,F, | E,CB,^A, G,EDC | B,2 ^A,2 G,2 F,2 | %28
 E,/A,/G,/F,/ G,/F,/E,/D,/ E,/F,/E,/D,/ E,/D,/C,/^B,,/ | C,2 z2 z4 | z8 | z8 | z8 | z8 | z8 | z8 | %36
 G,4 D4 | B,4 G,4 | =G,4 ^G,2 ^A,2 | B,4- B,CB,^A, | %40
 G,/=G,/^G,/^A,/ B,/G,/A,/B,/ C/^B,/C/D/ ^E/C/D/E/ | %41
 F,/^E,/F,/G,/ A,/F,/G,/A,/ B,/^A,/B,/C/ D/B,/C/D/ | E,D,^E,C, F,E,=G,D, | %43
 G,A,/G,/ A,F,- F,/F/E/D/ E/D/C/^B,/ | E/D,/E,/F,/ G,/F,/G,/^A,/ ^B,/A,/B,/C/ B,/C/D- | %45
 DB, G,2- G,E,A,C | F,A, D,/F,/E,/D,/ C, z z2 | z G, A,2 B, z z F, | %48
 G,D,E,G, A,/B,/A,/G,/ A,/G,/F,/^E,/ | F,4 C4 | A,4 F,4 | ^E,4 F,2 G,2 | A,4- A,B,A,=G, | %53
 F,4- F,F,G,A, | B,4- B,/=D/C/B,/ C/B,/A,/G,/ | A,2 B,G, A,B,A,G, | F,2 G,^A, B, z z2 | %57
 z4 z/ B,/A,/G,/ F,/A,/G,/F,/ | E, z z2 z4 | z C, C2- C^B,/^A,/ G,/F,/E,/D,/ | %60
 C,/^B,,/C,/D,/ E,/C,/D,/E,/ F,/^E,/F,/G,/ A,/F,/G,/A,/ | %61
 A,G, z/ G,/F,/G,/ A,/C/B,/A,/ B,/A,/G,/F,/ | E,/G,/F,/E,/ G,/F,/E,/D,/ C,2 z G, | %63
 A,2 z A, ^B,,F,E,A, | G,3 F, !fermata!^E,4 |] %65
V:4
 z8 | z8 | z8 | z8 | z8 | z8 | z8 | z C, C3 ^B,/^A,/ G,/F,/E,/D,/ | %8
 C,/^B,,/C,/D,/ E,/C,/D,/E,/ F,/^E,/F,/G,/ A,/F,/G,/A,/ | %9
 A,G, z/ G,/F,/G,/ A,/C/B,/A,/ B,/A,/G,/F,/ | %10
 E,/A,/G,/F,/ G,/F,/E,/D,/ C,/F,/E,/D,/ E,/D,/C,/B,,/ | C,^A,, D,2 G,,2 z2 | %12
 z/ F,/E,/D,/ C,/B,,/^A,,/G,,/ G,,/4=G,,/4^G,,/4=G,,/4^G,,/4=G,,/4^E,,/4G,,/4 ^G,,/F,,/E,,/D,,/ | %13
 C,,C,D,B,, E,^A,,^B,,G,, | C,2 z C, D,2 z B,, | %15
 E,/G,/F,/E,/ F,/E,/D,/C,/ F,/A,/G,/F,/ G,/F,/E,/D,/ | G,2 z A, F,D,G,G,, | A,,E, A,2 G,2 z2 | z8 | %19
 z8 | z8 | z8 | z8 | z8 | z8 | z8 | z8 | z8 | z8 | z C,, C,3 ^B,,/^A,,/ G,,/F,,/E,,/D,,/ | %30
 C,,/^B,,,/C,,/D,,/ E,,/C,,/E,,/F,,/ F,,/^E,,/F,,/G,,/ A,,/F,,/G,,/A,,/ | %31
 A,,G,, z/ G,,/F,,/G,,/ A,,/C,/B,,/A,,/ B,,/A,,/G,,/F,,/ | %32
 E,,/G,,/F,,/E,,/ G,,/F,,/E,,/D,,/ C,,2 z2 | z C,,D,,E,, F,,F,D,F, | B,,B,,,C,,D,, E,,G,C,E, | %35
 ^A,,C,=G,,A,, D,,D,^E,=G, | G,4- G,/=G,/^G,/^E,/ =G,^A, | ^A,G, z D, E,4 | D,4 z4 | %39
 z4 z/ C,/B,,/^A,,/ B,,/A,,/G,,/=G,,/ | G,, z z2 z4 | z8 | z8 | z8 | C,4 G,4 | E,4 C,4 | %46
 ^B,,4 C,2 D,2 | E,4- E,F,E,D, | C,4- C,/=D,/C,/B,,/ C,/B,,/A,,/G,,/ | A,,2 z A, ^E,G,E,C, | %50
 F,2 C,2 =D,E,^D,=D, | C,2 z/ B,,/A,,/G,,/ F,, z z2 | z =D,C,F, E,/=G,/F,/E,/ F,/E,/D,/C,/ | %53
 =D,/E,/D,/C,/ D,/C,/B,,/^A,,/ B,,/C,/B,,/=A,,/ B,,/A,,/G,,/F,,/ | %54
 G,,/A,,/G,,/F,,/ G,,/F,,/^E,,/D,,/ E,,2 z ^E, | F,=D,B,,C, F, z z2 | z E,=D,C, B,, z z2 | %57
 z/ D,/E,/F,/ G,/E,/F,/G,/ A, z z2 | z/ F,/E,/D,/ C,/E,/D,/C,/ ^B,,D,B,,G,, | %59
 C,B,, A,,2 G,,2 z G,, | A,,4- A,,2 z/ D,/E,/F,/ | G,,/D,/G,/F,/ E,D, C,2 z ^B,, | %62
 C,2 z G,, A,,2 z B,, | A,,/B,,/A,,/G,,/ A,,/G,,/F,,/E,,/ D,,D,E,F, | G,F,G,G,, !fermata!C,4 |] %65

